X:540
T: Julia Clifford's
S: "Johnny O'Leary of Sliabh Luachra" (#133)
Z: B.Black
L: 1/8
M: 12/8
R: slide
Q: 400
K: D
dB|A2D FED F2A A2f|gfe fed e2d BAd|
A2D FED F2A A2e|1 faf ege d3 d :|2\
faf ege ded||
ABc|: d2e f2f gfe f2f|gfe fed e2d B2A|
d2e fdf gfe f2f|1 faf ege d3 d3 :|2\
faf ege d3 d2B||
